Newaita-dark/mimetypes/16/payment-card-unionpay.svg

<svg height="16pt" viewBox="0 0 16 16" width="16pt" xmlns="http://www.w3.org/2000/svg" xmlns:xlink="http://www.w3.org/1999/xlink"><linearGradient id="a" gradientUnits="userSpaceOnUse" x1="8.269022" x2="8.269022" y1="13.0246855" y2="13.68620743751"><stop offset="0" stop-opacity=".27451"/><stop offset="1" stop-opacity="0"/></linearGradient><linearGradient id="b"><stop offset="0" stop-opacity=".313725"/><stop offset=".222222" stop-opacity=".27451"/><stop offset="1" stop-opacity="0"/></linearGradient><radialGradient id="c" cx="450.90894" cy="189.57936" gradientTransform="matrix(.00000009 -.0390662 -.0703192 -.00000005 26.726847 30.805385)" gradientUnits="userSpaceOnUse" r="21.166656" xlink:href="#b"/><radialGradient id="d" cx="450.90894" cy="189.57936" gradientTransform="matrix(-.00000009 .0390662 .0703192 .00000005 -10.850331 -4.756022)" gradientUnits="userSpaceOnUse" r="21.166656" xlink:href="#b"/><radialGradient id="e" cx="450.90894" cy="189.57936" gradientTransform="matrix(-.00000009 -.0390662 .0703192 -.00000005 -10.850331 30.805385)" gradientUnits="userSpaceOnUse" r="21.166656" xlink:href="#b"/><radialGradient id="f" cx="450.90894" cy="189.57936" gradientTransform="matrix(.00000009 .0390662 -.0703192 .00000005 26.726846 -4.756022)" gradientUnits="userSpaceOnUse" r="21.166656" xlink:href="#b"/><linearGradient id="g" gradientUnits="userSpaceOnUse" x1="7.938262" x2="7.938262" y1="15.34001137502" y2=".78653093751"><stop offset="0" stop-color="#f44336"/><stop offset="1" stop-color="#ef5350"/></linearGradient><linearGradient id="h" gradientUnits="userSpaceOnUse" x1="7.9382592" x2="7.9382592" y1="15.34000949816" y2=".78653356222"><stop offset="0" stop-color="#5c6bc0"/><stop offset="1" stop-color="#7986cb"/></linearGradient><linearGradient id="i" gradientUnits="userSpaceOnUse" x1="11.9073888" x2="11.9073888" y1="15.34000949816" y2=".78653356222"><stop offset="0" stop-color="#26a69a"/><stop offset="1" stop-color="#4db6ac"/></linearGradient><path d="m2.316406 13.023438h11.246094v.664062h-11.246094zm0 0" fill="url(#a)"/><path d="m13.5625 13.023438h1.320312v-.660157h-1.320312zm0 0" fill="url(#c)"/><path d="m2.316406 13.023438h-1.324218v.664062h1.324218zm0 0" fill="url(#d)"/><path d="m2.316406 13.023438h-1.324218v-.660157h1.324218zm0 0" fill="url(#e)"/><path d="m13.5625 13.023438h1.320312v.664062h-1.320312zm0 0" fill="url(#f)"/><path d="m1.984375 3.101562h11.90625c.367187 0 .664063.296876.664063.660157v8.601562c0 .363281-.296876.660157-.664063.660157h-11.90625c-.363281 0-.660156-.296876-.660156-.660157v-8.601562c0-.363281.296875-.660157.660156-.660157zm0 0" fill="url(#g)"/><path d="m6.285156 3.101562c-.367187 0-.664062.296876-.664062.660157v8.601562c0 .367188.296875.660157.664062.660157h7.605469c.367187 0 .664063-.292969.664063-.660157v-8.601562c0-.363281-.296876-.660157-.664063-.660157zm0 0" fill="url(#h)"/><path d="m10.914062 3.101562c-.367187 0-.660156.296876-.660156.660157v8.601562c0 .367188.292969.660157.660156.660157h2.976563c.367187 0 .664063-.292969.664063-.660157v-8.601562c0-.363281-.296876-.660157-.664063-.660157zm0 0" fill="url(#i)"/><path d="m1.984375 3.101562c-.367187 0-.660156.296876-.660156.660157v.167969c0-.367188.292969-.664063.660156-.664063h11.90625c.367187 0 .664063.296875.664063.664063v-.167969c0-.363281-.296876-.660157-.664063-.660157zm0 0" fill="#fff" fill-opacity=".588235"/><path d="m1.324219 12.203125v.160156c0 .367188.292969.660157.660156.660157h11.90625c.367187 0 .664063-.292969.664063-.660157v-.160156c0 .367187-.296876.660156-.664063.660156h-11.90625c-.367187 0-.660156-.292969-.660156-.660156zm0 0" fill-opacity=".235294"/><path d="m63.493937-115.759477h380.963619c11.748878 0 21.247971 9.499093 21.247971 21.122983v275.223717c0 11.62389-9.499093 21.122983-21.247971 21.122983h-380.963619c-11.62389 0-21.122983-9.499093-21.122983-21.122983v-275.223717c0-11.62389 9.499093-21.122983 21.122983-21.122983zm0 0" fill="none" stroke="#212121" stroke-linecap="round" stroke-linejoin="round" stroke-width="3" transform="matrix(.031253 0 0 .031253 0 6.719392)"/></svg>

<?xml version="1.0" encoding="UTF-8"?>
<svg xmlns="http://www.w3.org/2000/svg" xmlns:xlink="http://www.w3.org/1999/xlink" width="16pt" height="16pt" viewBox="0 0 16 16" version="1.1">
<defs>
<linearGradient id="linear0" gradientUnits="userSpaceOnUse" x1="254" y1="233.5" x2="254" y2="254.66667" gradientTransform="matrix(0.031253,0,0,0.031253,0.33076,5.72711)">
<stop offset="0" style="stop-color:rgb(0%,0%,0%);stop-opacity:0.27451;"/>
<stop offset="1" style="stop-color:rgb(0%,0%,0%);stop-opacity:0;"/>
</linearGradient>
<radialGradient id="radial0" gradientUnits="userSpaceOnUse" cx="450.90894" cy="189.57936" fx="450.90894" fy="189.57936" r="21.166656" gradientTransform="matrix(0.0000000870852,-0.0390662,-0.0703192,-0.0000000507693,26.726847,30.805385)">
<stop offset="0" style="stop-color:rgb(0%,0%,0%);stop-opacity:0.313725;"/>
<stop offset="0.222222" style="stop-color:rgb(0%,0%,0%);stop-opacity:0.27451;"/>
<stop offset="1" style="stop-color:rgb(0%,0%,0%);stop-opacity:0;"/>
</radialGradient>
<radialGradient id="radial1" gradientUnits="userSpaceOnUse" cx="450.90894" cy="189.57936" fx="450.90894" fy="189.57936" r="21.166656" gradientTransform="matrix(-0.0000000870852,0.0390662,0.0703192,0.0000000507693,-10.850331,-4.756022)">
<stop offset="0" style="stop-color:rgb(0%,0%,0%);stop-opacity:0.313725;"/>
<stop offset="0.222222" style="stop-color:rgb(0%,0%,0%);stop-opacity:0.27451;"/>
<stop offset="1" style="stop-color:rgb(0%,0%,0%);stop-opacity:0;"/>
</radialGradient>
<radialGradient id="radial2" gradientUnits="userSpaceOnUse" cx="450.90894" cy="189.57936" fx="450.90894" fy="189.57936" r="21.166656" gradientTransform="matrix(-0.0000000870852,-0.0390662,0.0703192,-0.0000000507693,-10.850331,30.805385)">
<stop offset="0" style="stop-color:rgb(0%,0%,0%);stop-opacity:0.313725;"/>
<stop offset="0.222222" style="stop-color:rgb(0%,0%,0%);stop-opacity:0.27451;"/>
<stop offset="1" style="stop-color:rgb(0%,0%,0%);stop-opacity:0;"/>
</radialGradient>
<radialGradient id="radial3" gradientUnits="userSpaceOnUse" cx="450.90894" cy="189.57936" fx="450.90894" fy="189.57936" r="21.166656" gradientTransform="matrix(0.0000000870852,0.0390662,-0.0703192,0.0000000507693,26.726846,-4.756022)">
<stop offset="0" style="stop-color:rgb(0%,0%,0%);stop-opacity:0.313725;"/>
<stop offset="0.222222" style="stop-color:rgb(0%,0%,0%);stop-opacity:0.27451;"/>
<stop offset="1" style="stop-color:rgb(0%,0%,0%);stop-opacity:0;"/>
</radialGradient>
<linearGradient id="linear1" gradientUnits="userSpaceOnUse" x1="254" y1="275.83334" x2="254" y2="-189.83333" gradientTransform="matrix(0.031253,0,0,0.031253,0,6.719392)">
<stop offset="0" style="stop-color:rgb(95.686275%,26.27451%,21.176471%);stop-opacity:1;"/>
<stop offset="1" style="stop-color:rgb(93.72549%,32.54902%,31.372549%);stop-opacity:1;"/>
</linearGradient>
<linearGradient id="linear2" gradientUnits="userSpaceOnUse" x1="960" y1="1855.1182" x2="960" y2="95.118111" gradientTransform="matrix(0.00826902,0,0,0.00826902,0,0)">
<stop offset="0" style="stop-color:rgb(36.078431%,41.960784%,75.294118%);stop-opacity:1;"/>
<stop offset="1" style="stop-color:rgb(47.45098%,52.54902%,79.607843%);stop-opacity:1;"/>
</linearGradient>
<linearGradient id="linear3" gradientUnits="userSpaceOnUse" x1="1440" y1="1855.1182" x2="1440" y2="95.118111" gradientTransform="matrix(0.00826902,0,0,0.00826902,0,0)">
<stop offset="0" style="stop-color:rgb(14.901961%,65.098039%,60.392157%);stop-opacity:1;"/>
<stop offset="1" style="stop-color:rgb(30.196078%,71.372549%,67.45098%);stop-opacity:1;"/>
</linearGradient>
</defs>
<g id="surface1">
<path style=" stroke:none;fill-rule:nonzero;fill:url(#linear0);" d="M 2.316406 13.023438 L 13.5625 13.023438 L 13.5625 13.6875 L 2.316406 13.6875 Z M 2.316406 13.023438 "/>
<path style=" stroke:none;fill-rule:nonzero;fill:url(#radial0);" d="M 13.5625 13.023438 L 14.882812 13.023438 L 14.882812 12.363281 L 13.5625 12.363281 Z M 13.5625 13.023438 "/>
<path style=" stroke:none;fill-rule:nonzero;fill:url(#radial1);" d="M 2.316406 13.023438 L 0.992188 13.023438 L 0.992188 13.6875 L 2.316406 13.6875 Z M 2.316406 13.023438 "/>
<path style=" stroke:none;fill-rule:nonzero;fill:url(#radial2);" d="M 2.316406 13.023438 L 0.992188 13.023438 L 0.992188 12.363281 L 2.316406 12.363281 Z M 2.316406 13.023438 "/>
<path style=" stroke:none;fill-rule:nonzero;fill:url(#radial3);" d="M 13.5625 13.023438 L 14.882812 13.023438 L 14.882812 13.6875 L 13.5625 13.6875 Z M 13.5625 13.023438 "/>
<path style=" stroke:none;fill-rule:nonzero;fill:url(#linear1);" d="M 1.984375 3.101562 L 13.890625 3.101562 C 14.257812 3.101562 14.554688 3.398438 14.554688 3.761719 L 14.554688 12.363281 C 14.554688 12.726562 14.257812 13.023438 13.890625 13.023438 L 1.984375 13.023438 C 1.621094 13.023438 1.324219 12.726562 1.324219 12.363281 L 1.324219 3.761719 C 1.324219 3.398438 1.621094 3.101562 1.984375 3.101562 Z M 1.984375 3.101562 "/>
<path style=" stroke:none;fill-rule:nonzero;fill:url(#linear2);" d="M 6.285156 3.101562 C 5.917969 3.101562 5.621094 3.398438 5.621094 3.761719 L 5.621094 12.363281 C 5.621094 12.730469 5.917969 13.023438 6.285156 13.023438 L 13.890625 13.023438 C 14.257812 13.023438 14.554688 12.730469 14.554688 12.363281 L 14.554688 3.761719 C 14.554688 3.398438 14.257812 3.101562 13.890625 3.101562 Z M 6.285156 3.101562 "/>
<path style=" stroke:none;fill-rule:nonzero;fill:url(#linear3);" d="M 10.914062 3.101562 C 10.546875 3.101562 10.253906 3.398438 10.253906 3.761719 L 10.253906 12.363281 C 10.253906 12.730469 10.546875 13.023438 10.914062 13.023438 L 13.890625 13.023438 C 14.257812 13.023438 14.554688 12.730469 14.554688 12.363281 L 14.554688 3.761719 C 14.554688 3.398438 14.257812 3.101562 13.890625 3.101562 Z M 10.914062 3.101562 "/>
<path style=" stroke:none;fill-rule:nonzero;fill:rgb(100%,100%,100%);fill-opacity:0.588235;" d="M 1.984375 3.101562 C 1.617188 3.101562 1.324219 3.398438 1.324219 3.761719 L 1.324219 3.929688 C 1.324219 3.5625 1.617188 3.265625 1.984375 3.265625 L 13.890625 3.265625 C 14.257812 3.265625 14.554688 3.5625 14.554688 3.929688 L 14.554688 3.761719 C 14.554688 3.398438 14.257812 3.101562 13.890625 3.101562 Z M 1.984375 3.101562 "/>
<path style=" stroke:none;fill-rule:nonzero;fill:rgb(0%,0%,0%);fill-opacity:0.235294;" d="M 1.324219 12.203125 L 1.324219 12.363281 C 1.324219 12.730469 1.617188 13.023438 1.984375 13.023438 L 13.890625 13.023438 C 14.257812 13.023438 14.554688 12.730469 14.554688 12.363281 L 14.554688 12.203125 C 14.554688 12.570312 14.257812 12.863281 13.890625 12.863281 L 1.984375 12.863281 C 1.617188 12.863281 1.324219 12.570312 1.324219 12.203125 Z M 1.324219 12.203125 "/>
<path style="fill:none;stroke-width:3;stroke-linecap:round;stroke-linejoin:round;stroke:rgb(12.941176%,12.941176%,12.941176%);stroke-opacity:1;stroke-miterlimit:4;" d="M 63.493937 -115.759477 L 444.457556 -115.759477 C 456.206434 -115.759477 465.705527 -106.260384 465.705527 -94.636494 L 465.705527 180.587223 C 465.705527 192.211113 456.206434 201.710206 444.457556 201.710206 L 63.493937 201.710206 C 51.870047 201.710206 42.370954 192.211113 42.370954 180.587223 L 42.370954 -94.636494 C 42.370954 -106.260384 51.870047 -115.759477 63.493937 -115.759477 Z M 63.493937 -115.759477 " transform="matrix(0.031253,0,0,0.031253,0,6.719392)"/>
</g>
</svg>
